X:1
T:Toss the Feathers [1]
L:1/8
M:4/4
I:linebreak $
K:Emin
V:1 treble 
V:1
 EB B2 dB B2 | EBBA FDFA | BE E2 B2 AB |1 defe dBAF :|2 defe dABA | Beed e2 de |$ fede feed | %7
 febe febe | fede feed | Beed e2 de | fede fgaf | b3 g a3 f |$ egfe dBAF || %13
